public/images/bridge.svg

<svg width="117" height="109" viewBox="0 0 117 109" fill="none" xmlns="http://www.w3.org/2000/svg">
<path d="M8.94272 65.788V54.062C8.94272 53.5097 8.49726 53.018 7.95588 52.9088C7.57528 52.8321 7.07712 52.7206 6.44272 52.562C4.44272 52.062 4.44272 45.562 6.94272 43.062C8.32208 41.6826 9.78072 41.0168 10.8266 40.7363C11.4075 40.5806 11.8752 40.0334 11.8787 39.432C11.8922 37.0658 12.7562 34.5637 13.4755 32.9945C13.7127 32.477 13.6088 31.7128 13.4352 31.1706C13.1758 30.36 12.9427 28.9272 12.9427 26.562C12.9427 21.562 14.4427 17.062 19.9427 17.062C24.3427 17.062 25.7761 20.062 25.9427 21.562C25.9427 21.3953 26.8427 20.862 30.4427 20.062C30.8829 19.9642 31.2727 19.8953 31.6174 19.8509C32.5987 19.7245 35.9899 19.9841 36.8989 19.5934C46.9082 15.2922 59.5256 16.0163 66.2578 17.2238C67.0138 17.3594 67.6685 16.6454 67.4925 15.8977C66.9875 13.7526 66.6958 11.2503 67.9427 11.562C68.691 11.7491 71.0468 11.0579 71.154 10.2942C71.5753 7.29247 72.6366 4.54959 74.9427 5.06205C76.0798 5.31473 76.748 6.50519 77.1301 8.01581C77.4191 9.15841 80.4327 9.82569 81.2334 8.96086C81.8095 8.33863 82.3944 7.97063 82.9427 8.06202C85.1179 8.42456 85.8145 12.1003 85.9259 14.3988C85.9437 14.7648 86.4055 15.0814 86.7189 15.2712C87.3178 15.634 89.3713 16.0457 90.0609 15.9245C90.5827 15.8327 91.2076 15.852 91.9427 16.0621C94.0035 16.6509 94.5657 19.9842 94.7854 22.4341C94.8611 23.2785 95.8096 23.5931 96.5216 23.1329C97.1675 22.7153 97.8873 22.5066 98.4427 23.062C99.5348 24.1541 99.0533 27.8135 98.581 29.9704C98.5011 30.3354 98.6186 30.7172 98.8987 30.9644L106.604 37.7635C106.819 37.9533 106.943 38.2264 106.943 38.5133V42.7C106.943 42.9339 107.025 43.1604 107.174 43.3402L111.711 48.7839C111.861 48.9636 111.943 49.1901 111.943 49.4241V58.869C111.943 59.2859 111.684 59.659 111.294 59.8054L104.422 62.3824C104.121 62.4952 103.893 62.7457 103.808 63.0556L101.009 73.3178C100.966 73.4781 100.883 73.625 100.768 73.7451L90.5247 84.4761C90.4702 84.5332 90.4092 84.5836 90.3429 84.6263L61.4418 103.241C61.1342 103.439 60.7428 103.453 60.4215 103.278L17.184 79.6936C17.0261 79.6075 16.8943 79.4803 16.8026 79.3255L9.08243 66.2978C8.99097 66.1435 8.94272 65.9674 8.94272 65.788Z" fill="#AA7755" stroke="white" stroke-width="10" stroke-linecap="round" stroke-linejoin="round"/>
<path d="M8.94272 65.788V54.062C8.94272 53.5097 8.49726 53.018 7.95588 52.9088C7.57528 52.8321 7.07712 52.7206 6.44272 52.562C4.44272 52.062 4.44272 45.562 6.94272 43.062C8.32208 41.6826 9.78072 41.0168 10.8266 40.7363C11.4075 40.5806 11.8752 40.0334 11.8787 39.432C11.8922 37.0658 12.7562 34.5637 13.4755 32.9945C13.7127 32.477 13.6088 31.7128 13.4352 31.1706C13.1758 30.36 12.9427 28.9272 12.9427 26.562C12.9427 21.562 14.4427 17.062 19.9427 17.062C24.3427 17.062 25.7761 20.062 25.9427 21.562C25.9427 21.3953 26.8427 20.862 30.4427 20.062C30.8829 19.9642 31.2727 19.8953 31.6174 19.8509C32.5987 19.7245 35.9899 19.9841 36.8989 19.5934C46.9082 15.2922 59.5256 16.0163 66.2578 17.2238C67.0138 17.3594 67.6685 16.6454 67.4925 15.8977C66.9875 13.7526 66.6958 11.2503 67.9427 11.562C68.691 11.7491 71.0468 11.0579 71.154 10.2942C71.5753 7.29247 72.6366 4.54959 74.9427 5.06205C76.0798 5.31473 76.748 6.50519 77.1301 8.01581C77.4191 9.15841 80.4327 9.82569 81.2334 8.96086C81.8095 8.33863 82.3944 7.97063 82.9427 8.06202C85.1179 8.42456 85.8145 12.1003 85.9259 14.3988C85.9437 14.7648 86.4055 15.0814 86.7189 15.2712C87.3178 15.634 89.3713 16.0457 90.0609 15.9245C90.5827 15.8327 91.2076 15.852 91.9427 16.0621C94.0035 16.6509 94.5657 19.9842 94.7854 22.4341C94.8611 23.2785 95.8096 23.5931 96.5216 23.1329C97.1675 22.7153 97.8873 22.5066 98.4427 23.062C99.5348 24.1541 99.0533 27.8135 98.581 29.9704C98.5011 30.3354 98.6186 30.7172 98.8987 30.9644L106.604 37.7635C106.819 37.9533 106.943 38.2264 106.943 38.5133V42.7C106.943 42.9339 107.025 43.1604 107.174 43.3402L111.711 48.7839C111.861 48.9636 111.943 49.1901 111.943 49.4241V58.869C111.943 59.2859 111.684 59.659 111.294 59.8054L104.422 62.3824C104.121 62.4952 103.893 62.7457 103.808 63.0556L101.009 73.3178C100.966 73.4781 100.883 73.625 100.768 73.7451L90.5247 84.4761C90.4702 84.5332 90.4092 84.5836 90.3429 84.6263L61.4418 103.241C61.1342 103.439 60.7428 103.453 60.4215 103.278L17.184 79.6936C17.0261 79.6075 16.8943 79.4803 16.8026 79.3255L9.08243 66.2978C8.99097 66.1435 8.94272 65.9674 8.94272 65.788Z" fill="#AA7755" stroke="black" stroke-width="3" stroke-linecap="round" stroke-linejoin="round"/>
<ellipse cx="55.7564" cy="61.8316" rx="46.5" ry="30.2058" transform="rotate(2.58157 55.7564 61.8316)" fill="#664422" stroke="black"/>
<path d="M101.71 55.8376C101.344 63.9451 95.9507 71.1238 87.3882 76.1526C78.8306 81.1785 67.1637 84.016 54.4184 83.4414C41.6731 82.8667 30.3088 78.9907 22.2382 73.2152C14.163 67.4362 9.43749 59.8013 9.80304 51.6938C10.1686 43.5862 15.562 36.4075 24.1245 31.3788C32.6821 26.3529 44.3491 23.5154 57.0943 24.09C69.8396 24.6647 81.2039 28.5406 89.2745 34.3162C97.3497 40.0951 102.075 47.7301 101.71 55.8376Z" fill="#33DDDD" stroke="black"/>
<ellipse cx="27.5" cy="64" rx="5.5" ry="3" fill="#BBEEEE"/>
<ellipse cx="19.5" cy="58" rx="3.5" ry="2" fill="#BBEEEE"/>
<ellipse cx="76.5" cy="72" rx="5.5" ry="3" fill="#BBEEEE"/>
<path d="M70.6841 23.7884C54.5497 21.3221 36.0591 22.562 30.0591 27.062C28.0594 32.562 28.1841 37.7882 35.1841 39.7882C40.7841 41.3882 45.5174 39.1216 47.1841 37.7882C48.0174 38.7882 50.8841 40.9882 55.6841 41.7882C60.4841 42.5882 64.0174 40.7882 65.1841 39.7882C79.1841 47.2882 102.184 52.7882 105.184 46.7882C108.184 40.7882 105.184 29.062 70.6841 23.7884Z" fill="#997755" stroke="black"/>
<path d="M71.0591 18.7883C55.4591 13.9883 38.5591 17.7882 32.5591 22.2882C27.5591 26.7882 28.5591 32.7882 35.5591 34.7882C41.1591 36.3882 45.8924 34.1216 47.5591 32.7882C48.3924 33.7882 51.2591 35.9882 56.0591 36.7882C60.8591 37.5882 64.3924 35.7882 65.5591 34.7882C79.5591 42.2882 102.559 47.7882 105.559 41.7882C108.559 35.7882 90.5591 24.7883 71.0591 18.7883Z" fill="#BBEE22" stroke="black"/>
<path d="M68.443 12.0621C66.9509 11.316 67.662 15.1502 68.3053 17.5631C68.3891 17.8771 68.6254 18.1258 68.9322 18.2331L83.7699 23.4196C83.9211 23.4724 84.083 23.4846 84.2431 23.48C85.268 23.4506 85.9572 24.0192 87.4429 19.5621C88.8289 15.4041 87.3133 14.948 86.0164 15.3338C85.6534 15.4418 85.457 15.5161 85.4493 15.1374C85.4181 13.6058 85.1031 9.17932 82.9429 8.56212C80.1429 7.76212 78.5092 11.5983 78.4429 12.0622C78.3766 12.526 78.0429 5.16212 74.4429 5.56212C70.8429 5.96212 70.6095 12.3955 70.9429 15.5621C70.7763 14.7288 70.043 12.8621 68.443 12.0621Z" fill="#AAEE22" stroke="black" stroke-linejoin="round"/>
<path d="M90.4429 16.062C86.6687 16.062 85.6162 20.2165 85.5094 23.4856C85.4977 23.8425 85.6904 24.1721 85.9995 24.3508L96.3901 30.3583C96.9537 30.6841 97.6872 30.3969 97.8404 29.7642C98.018 29.0313 98.1934 28.058 98.4429 26.062C98.8429 22.862 96.6095 22.3953 95.4429 22.562C95.4429 20.3953 94.4429 16.062 90.4429 16.062Z" fill="#AAEE22"/>
<path d="M95.4429 22.562C95.4429 20.3953 94.4429 16.062 90.4429 16.062C86.6687 16.062 85.6162 20.2165 85.5094 23.4856C85.4977 23.8425 85.6904 24.1721 85.9995 24.3508L96.3901 30.3583C96.9537 30.6841 97.6872 30.3969 97.8404 29.7642C98.018 29.0313 98.1934 28.058 98.4429 26.062C98.8429 22.862 96.6095 22.3953 95.4429 22.562ZM95.4429 22.562L94.9429 24.062" stroke="black" stroke-linecap="round" stroke-linejoin="round"/>
<path d="M18.7097 17.5832C12.7097 17.9832 12.5433 26.0832 13.21 29.5832C14.3799 34.2631 27.3688 32.3523 34.1967 30.7091C34.5198 30.6314 34.7807 30.3982 34.8747 30.0795C35.4764 28.0393 35.9118 24.152 33.71 21.5832C31.7464 19.2923 29.2026 20.6386 27.3384 21.843C26.7742 22.2074 25.9983 21.9354 25.6795 21.3442C24.8338 19.7759 22.8357 17.3081 18.7097 17.5832Z" fill="#448833" stroke="black" stroke-linecap="round" stroke-linejoin="round"/>
<path d="M19.1391 49.3382C19.0286 51.7878 15.2382 53.687 11.4671 53.517C7.69604 53.3469 6.02874 51.7879 6.13919 49.3383C6.13916 43.3381 8.86798 40.6681 12.6391 40.8381C16.4102 41.0081 19.2495 46.8885 19.1391 49.3382Z" fill="#77BB99" stroke="black"/>
<path d="M37.4247 40.2624C37.2744 43.5944 29.9754 46.081 22.6598 45.7512C15.3442 45.4214 12.0711 43.2554 12.2213 39.9234C12.0647 31.7549 17.2855 28.1911 24.6012 28.5209C31.9168 28.8508 37.5749 36.9303 37.4247 40.2624Z" fill="#77BB99" stroke="black"/>
<path d="M111.944 53.562C111.794 56.894 108.976 61.8237 101.661 61.4938C95.9438 61.2361 92.7929 57.894 92.9432 54.562C92.7866 46.3935 96.2864 43.9337 103.602 44.2636C110.918 44.5934 112.094 50.2299 111.944 53.562Z" fill="#664422" stroke="black"/>
<ellipse cx="12.696" cy="43.77" rx="4.62261" ry="3.00279" transform="rotate(2.58157 12.696 43.77)" fill="#AAEE22" stroke="black"/>
<ellipse cx="23.4427" cy="33.0617" rx="8.24365" ry="5.87701" transform="rotate(2.58157 23.4427 33.0617)" fill="#AAEE22" stroke="black"/>
<ellipse cx="102.443" cy="48.8044" rx="8.24365" ry="5.87701" transform="rotate(2.58157 102.443 48.8044)" fill="#AAEE22" stroke="black"/>
<path d="M62.4429 38.062L61.4429 29.062H70.4429V37.062C69.9429 39.562 63.4429 40.062 62.4429 38.062Z" fill="#AA6622" stroke="black"/>
<path d="M34.4429 62.562L33.4429 43.062H42.4429L41.4429 62.562C40.9429 65.062 35.4429 64.562 34.4429 62.562Z" fill="#AA6622" stroke="black"/>
<path d="M70.4429 28.562C70.4429 29.1458 70.0459 29.7598 69.2212 30.2546C68.4064 30.7434 67.2485 31.062 65.9429 31.062C64.6372 31.062 63.4793 30.7434 62.6646 30.2546C61.8399 29.7598 61.4429 29.1458 61.4429 28.562C61.4429 27.9782 61.8399 27.3643 62.6646 26.8694C63.4793 26.3806 64.6372 26.062 65.9429 26.062C67.2485 26.062 68.4064 26.3806 69.2212 26.8694C70.0459 27.3643 70.4429 27.9782 70.4429 28.562Z" fill="#FFEE66" stroke="black"/>
<path d="M42.4429 42.562C42.4429 43.1458 42.0459 43.7598 41.2212 44.2546C40.4064 44.7434 39.2485 45.062 37.9429 45.062C36.6372 45.062 35.4793 44.7434 34.6646 44.2546C33.8399 43.7598 33.4429 43.1458 33.4429 42.562C33.4429 41.9782 33.8399 41.3643 34.6646 40.8694C35.4793 40.3806 36.6372 40.062 37.9429 40.062C39.2485 40.062 40.4064 40.3806 41.2212 40.8694C42.0459 41.3643 42.4429 41.9782 42.4429 42.562Z" fill="#FFEE66" stroke="black"/>
<path d="M49.9821 41.2223L40.7983 44.4167C40.0262 44.6852 39.885 45.7163 40.5564 46.1825L56.3611 57.158C56.7097 57.4001 57.173 57.3958 57.517 57.1473L64.7559 51.9192C65.3266 51.5071 65.3041 50.6499 64.7126 50.2683L50.8528 41.3265C50.5941 41.1596 50.2729 41.1211 49.9821 41.2223Z" fill="#DDAA44" stroke="black" stroke-linejoin="round"/>
<path d="M56.7595 66.9816L50.4705 66.2418C49.7519 66.1572 49.361 65.3662 49.7757 64.7734C56.5865 55.0371 74.1013 46.6454 83.5199 43.0855C84.1934 42.831 84.8894 43.3646 84.8415 44.083L84.5655 48.2222C84.5127 49.0141 83.485 49.6062 82.6915 49.5873C81.1134 49.5498 78.3238 50.1216 73.4429 52.562C63.9965 57.2852 59.7555 62.9007 57.7694 66.4583C57.5674 66.8201 57.1711 67.03 56.7595 66.9816Z" fill="#553322" stroke="black" stroke-linejoin="round"/>
<path d="M69.05 34.6861L62.2166 36.844C61.3711 37.111 61.2656 38.2647 62.0486 38.6807L75.58 45.8692C75.8125 45.9927 76.0843 46.0196 76.3365 45.9439L83.5695 43.774C84.4312 43.5155 84.5399 42.3393 83.7401 41.9272L69.8091 34.7507C69.5745 34.6298 69.3017 34.6066 69.05 34.6861Z" fill="#DDAA44" stroke="black" stroke-linejoin="round"/>
<path d="M60.0298 37.7066L52.4087 40.374C51.6169 40.6511 51.4976 41.7212 52.209 42.1658L65.9673 50.7648C66.2627 50.9494 66.6329 50.967 66.9445 50.8112L74.7079 46.9295C75.4348 46.566 75.4476 45.5332 74.7298 45.152L60.8293 37.7673C60.583 37.6364 60.2931 37.6144 60.0298 37.7066Z" fill="#DDAA44" stroke="black" stroke-linejoin="round"/>
<path d="M38.5221 45.6883L30.1332 48.2049C29.5216 48.3884 29.2363 49.0902 29.5464 49.6484L33.7992 57.3034C33.893 57.4722 34.0336 57.6102 34.2042 57.7008L48.8517 65.4823C49.4135 65.7808 50.1075 65.4856 50.2823 64.8739L50.8658 62.8318C50.9162 62.6553 51.0142 62.4962 51.149 62.3717L56.4579 57.4713C56.9493 57.0176 56.8655 56.2187 56.2907 55.8769L39.3205 45.7865C39.0798 45.6435 38.7902 45.6078 38.5221 45.6883Z" fill="#DDAA44" stroke="black" stroke-linejoin="round"/>
<path d="M49.4574 60.7707L32.317 50.4865C31.6991 50.1158 30.9966 50.8183 31.3674 51.4362C31.4172 51.5191 31.4838 51.5908 31.5629 51.6464L48.3679 63.4553C49.0305 63.9209 49.9429 63.447 49.9429 62.6371V61.6282C49.9429 61.2769 49.7586 60.9514 49.4574 60.7707Z" fill="#FFEE66"/>
<path d="M82.4429 58.562L81.4429 39.062H90.4429V57.562C89.9429 60.062 83.4429 60.562 82.4429 58.562Z" fill="#AA6622" stroke="black"/>
<path d="M53.4429 74.562L52.4429 55.062H61.4429V73.562C60.9429 76.062 54.4429 76.562 53.4429 74.562Z" fill="#AA6622" stroke="black"/>
<path d="M90.4429 38.562C90.4429 39.1458 90.0459 39.7598 89.2212 40.2546C88.4064 40.7434 87.2485 41.062 85.9429 41.062C84.6372 41.062 83.4793 40.7434 82.6646 40.2546C81.8399 39.7598 81.4429 39.1458 81.4429 38.562C81.4429 37.9782 81.8399 37.3643 82.6646 36.8694C83.4793 36.3806 84.6372 36.062 85.9429 36.062C87.2485 36.062 88.4064 36.3806 89.2212 36.8694C90.0459 37.3643 90.4429 37.9782 90.4429 38.562Z" fill="#FFEE66" stroke="black"/>
<path d="M61.4429 54.562C61.4429 55.1458 61.0459 55.7598 60.2212 56.2546C59.4064 56.7434 58.2485 57.062 56.9429 57.062C55.6372 57.062 54.4793 56.7434 53.6646 56.2546C52.8399 55.7598 52.4429 55.1458 52.4429 54.562C52.4429 53.9782 52.8399 53.3643 53.6646 52.8694C54.4793 52.3806 55.6372 52.062 56.9429 52.062C58.2485 52.062 59.4064 52.3806 60.2212 52.8694C61.0459 53.3643 61.4429 53.9782 61.4429 54.562Z" fill="#FFEE66" stroke="black"/>
</svg>

<svg width="117" height="109" viewBox="0 0 117 109" fill="none" xmlns="http://www.w3.org/2000/svg"><path d="M8.943 65.788V54.062c0-.552-.446-1.044-.987-1.153a34.16 34.16 0 0 1-1.513-.347c-2-.5-2-7 .5-9.5 1.38-1.38 2.838-2.045 3.884-2.326.58-.155 1.048-.703 1.052-1.304.013-2.366.877-4.868 1.597-6.438.237-.517.133-1.281-.04-1.823-.26-.811-.493-2.244-.493-4.609 0-5 1.5-9.5 7-9.5 4.4 0 5.833 3 6 4.5 0-.167.9-.7 4.5-1.5.44-.098.83-.167 1.174-.211.982-.127 4.373.133 5.282-.258 10.01-4.3 22.627-3.577 29.359-2.37.756.136 1.41-.578 1.235-1.325-.505-2.145-.797-4.648.45-4.336.748.187 3.104-.504 3.211-1.268.421-3.002 1.483-5.744 3.789-5.232 1.137.253 1.805 1.443 2.187 2.954.29 1.142 3.303 1.81 4.103.945.576-.622 1.161-.99 1.71-.899 2.175.363 2.871 4.038 2.983 6.337.018.366.48.682.793.872.599.363 2.652.775 3.342.653.522-.091 1.147-.072 1.882.138 2.06.589 2.623 3.922 2.842 6.372.076.845 1.025 1.16 1.737.699.645-.418 1.365-.626 1.92-.071 1.093 1.092.611 4.752.139 6.908-.08.365.038.747.318.994l7.705 6.8a1 1 0 0 1 .339.75V42.7c0 .234.082.46.231.64l4.537 5.444c.15.18.232.406.232.64v9.445a1 1 0 0 1-.649.936l-6.872 2.577a1.001 1.001 0 0 0-.614.674l-2.799 10.262a.988.988 0 0 1-.241.427L90.525 84.476a1 1 0 0 1-.182.15l-28.901 18.615a1 1 0 0 1-1.02.037L17.184 79.694a1 1 0 0 1-.381-.368l-7.72-13.028a1 1 0 0 1-.14-.51z" fill="#A75" stroke="#fff" stroke-width="10" stroke-linecap="round" stroke-linejoin="round"/><path d="M8.943 65.788V54.062c0-.552-.446-1.044-.987-1.153a34.16 34.16 0 0 1-1.513-.347c-2-.5-2-7 .5-9.5 1.38-1.38 2.838-2.045 3.884-2.326.58-.155 1.048-.703 1.052-1.304.013-2.366.877-4.868 1.597-6.438.237-.517.133-1.281-.04-1.823-.26-.811-.493-2.244-.493-4.609 0-5 1.5-9.5 7-9.5 4.4 0 5.833 3 6 4.5 0-.167.9-.7 4.5-1.5.44-.098.83-.167 1.174-.211.982-.127 4.373.133 5.282-.258 10.01-4.3 22.627-3.577 29.359-2.37.756.136 1.41-.578 1.235-1.325-.505-2.145-.797-4.648.45-4.336.748.187 3.104-.504 3.211-1.268.421-3.002 1.483-5.744 3.789-5.232 1.137.253 1.805 1.443 2.187 2.954.29 1.142 3.303 1.81 4.103.945.576-.622 1.161-.99 1.71-.899 2.175.363 2.871 4.038 2.983 6.337.018.366.48.682.793.872.599.363 2.652.775 3.342.653.522-.091 1.147-.072 1.882.138 2.06.589 2.623 3.922 2.842 6.372.076.845 1.025 1.16 1.737.699.645-.418 1.365-.626 1.92-.071 1.093 1.092.611 4.752.139 6.908-.08.365.038.747.318.994l7.705 6.8a1 1 0 0 1 .339.75V42.7c0 .234.082.46.231.64l4.537 5.444c.15.18.232.406.232.64v9.445a1 1 0 0 1-.649.936l-6.872 2.577a1.001 1.001 0 0 0-.614.674l-2.799 10.262a.988.988 0 0 1-.241.427L90.525 84.476a1 1 0 0 1-.182.15l-28.901 18.615a1 1 0 0 1-1.02.037L17.184 79.694a1 1 0 0 1-.381-.368l-7.72-13.028a1 1 0 0 1-.14-.51z" fill="#A75" stroke="#000" stroke-width="3" stroke-linecap="round" stroke-linejoin="round"/><ellipse cx="55.756" cy="61.832" rx="46.5" ry="30.206" transform="rotate(2.582 55.756 61.832)" fill="#642" stroke="#000"/><path d="M101.71 55.838c-.366 8.107-5.76 15.286-14.322 20.315-8.557 5.025-20.224 7.863-32.97 7.288-12.745-.574-24.11-4.45-32.18-10.226-8.075-5.779-12.8-13.414-12.435-21.521.366-8.108 5.759-15.287 14.322-20.315 8.557-5.026 20.224-7.864 32.97-7.289 12.745.575 24.109 4.45 32.18 10.226 8.075 5.78 12.8 13.414 12.435 21.522z" fill="#3DD" stroke="#000"/><ellipse cx="27.5" cy="64" rx="5.5" ry="3" fill="#BEE"/><ellipse cx="19.5" cy="58" rx="3.5" ry="2" fill="#BEE"/><ellipse cx="76.5" cy="72" rx="5.5" ry="3" fill="#BEE"/><path d="M70.684 23.788C54.55 21.322 36.06 22.562 30.06 27.062c-2 5.5-1.875 10.726 5.125 12.726 5.6 1.6 10.333-.666 12-2 .833 1 3.7 3.2 8.5 4 4.8.8 8.333-1 9.5-2 14 7.5 37 13 40 7s0-17.726-34.5-23z" fill="#975" stroke="#000"/><path d="M71.06 18.788c-15.6-4.8-32.5-1-38.5 3.5-5 4.5-4 10.5 3 12.5 5.6 1.6 10.332-.666 12-2 .832 1 3.7 3.2 8.5 4 4.8.8 8.332-1 9.5-2 14 7.5 36.999 13 39.999 7s-15-17-34.5-23z" fill="#BE2" stroke="#000"/><path d="M68.443 12.062c-1.492-.746-.781 3.088-.138 5.501a.98.98 0 0 0 .627.67L83.77 23.42c.151.052.313.065.473.06 1.025-.03 1.714.54 3.2-3.918 1.386-4.158-.13-4.614-1.427-4.228-.363.108-.559.182-.567-.197-.03-1.531-.346-5.958-2.506-6.575-2.8-.8-4.434 3.036-4.5 3.5-.066.464-.4-6.9-4-6.5-3.6.4-3.834 6.833-3.5 10-.167-.833-.9-2.7-2.5-3.5z" fill="#AE2" stroke="#000" stroke-linejoin="round"/><path d="M90.443 16.062c-3.774 0-4.827 4.154-4.934 7.424a.967.967 0 0 0 .49.865l10.391 6.007c.564.326 1.297.039 1.45-.594.178-.733.353-1.706.603-3.702.4-3.2-1.834-3.667-3-3.5 0-2.167-1-6.5-5-6.5z" fill="#AE2"/><path d="M95.443 22.562c0-2.167-1-6.5-5-6.5-3.774 0-4.827 4.154-4.934 7.424a.967.967 0 0 0 .49.865l10.391 6.007c.564.326 1.297.039 1.45-.594.178-.733.353-1.706.603-3.702.4-3.2-1.834-3.667-3-3.5zm0 0-.5 1.5" stroke="#000" stroke-linecap="round" stroke-linejoin="round"/><path d="M18.71 17.583c-6 .4-6.167 8.5-5.5 12 1.17 4.68 14.159 2.77 20.987 1.126a.92.92 0 0 0 .678-.63c.601-2.04 1.037-5.927-1.165-8.496-1.964-2.29-4.507-.944-6.372.26-.564.364-1.34.092-1.659-.499-.845-1.568-2.843-4.036-6.97-3.76z" fill="#483" stroke="#000" stroke-linecap="round" stroke-linejoin="round"/><path d="M19.14 49.338c-.111 2.45-3.902 4.349-7.673 4.179-3.771-.17-5.438-1.73-5.328-4.179 0-6 2.729-8.67 6.5-8.5 3.771.17 6.61 6.05 6.5 8.5z" fill="#7B9" stroke="#000"/><path d="M37.425 40.262c-.15 3.332-7.45 5.819-14.765 5.49-7.316-.33-10.589-2.497-10.439-5.829-.156-8.168 5.064-11.732 12.38-11.402 7.316.33 12.974 8.41 12.824 11.741z" fill="#7B9" stroke="#000"/><path d="M111.944 53.562c-.15 3.332-2.968 8.262-10.283 7.932-5.717-.258-8.868-3.6-8.718-6.932-.156-8.168 3.343-10.628 10.659-10.298 7.316.33 8.492 5.966 8.342 9.298z" fill="#642" stroke="#000"/><ellipse cx="12.696" cy="43.77" rx="4.623" ry="3.003" transform="rotate(2.582 12.696 43.77)" fill="#AE2" stroke="#000"/><ellipse cx="23.443" cy="33.062" rx="8.244" ry="5.877" transform="rotate(2.582 23.443 33.062)" fill="#AE2" stroke="#000"/><ellipse cx="102.443" cy="48.804" rx="8.244" ry="5.877" transform="rotate(2.582 102.443 48.804)" fill="#AE2" stroke="#000"/><path d="m62.443 38.062-1-9h9v8c-.5 2.5-7 3-8 1zm-28 24.5-1-19.5h9l-1 19.5c-.5 2.5-6 2-7 0z" fill="#A62" stroke="#000"/><path d="M70.443 28.562c0 .584-.397 1.198-1.222 1.693-.815.488-1.972.807-3.278.807s-2.464-.319-3.278-.807c-.825-.495-1.222-1.11-1.222-1.693 0-.584.397-1.198 1.222-1.693.814-.488 1.972-.807 3.278-.807s2.463.319 3.278.807c.825.495 1.222 1.11 1.222 1.693zm-28 14c0 .584-.397 1.198-1.222 1.693-.815.488-1.972.807-3.278.807s-2.464-.319-3.278-.807c-.825-.495-1.222-1.11-1.222-1.693 0-.584.397-1.198 1.222-1.693.814-.488 1.972-.807 3.278-.807s2.463.319 3.278.807c.825.495 1.222 1.11 1.222 1.693z" fill="#FE6" stroke="#000"/><path d="m49.982 41.222-9.184 3.195a1 1 0 0 0-.242 1.765l15.805 10.976a1 1 0 0 0 1.156-.01l7.239-5.229a1 1 0 0 0-.043-1.65l-13.86-8.942a1 1 0 0 0-.87-.105z" fill="#DA4" stroke="#000" stroke-linejoin="round"/><path d="m56.76 66.982-6.29-.74c-.718-.085-1.109-.876-.694-1.469 6.81-9.736 24.325-18.128 33.744-21.687.673-.255 1.37.279 1.322.997l-.276 4.14c-.053.791-1.081 1.383-1.874 1.364-1.579-.037-4.368.535-9.25 2.975-9.445 4.723-13.686 10.339-15.673 13.896a1.023 1.023 0 0 1-1.01.524z" fill="#532" stroke="#000" stroke-linejoin="round"/><path d="m69.05 34.686-6.833 2.158c-.846.267-.951 1.42-.168 1.837l13.531 7.188a1 1 0 0 0 .757.075l7.233-2.17c.861-.258.97-1.435.17-1.847l-13.93-7.176a1 1 0 0 0-.76-.065z" fill="#DA4" stroke="#000" stroke-linejoin="round"/><path d="m60.03 37.707-7.621 2.667a1 1 0 0 0-.2 1.792l13.758 8.599a1 1 0 0 0 .978.046l7.763-3.882a1 1 0 0 0 .022-1.777l-13.9-7.385a1 1 0 0 0-.8-.06zm-21.508 7.981-8.389 2.517a1 1 0 0 0-.587 1.443l4.253 7.655a1 1 0 0 0 .405.398l14.648 7.781a1 1 0 0 0 1.43-.608l.584-2.042a1 1 0 0 1 .283-.46l5.309-4.9a1 1 0 0 0-.167-1.595l-16.97-10.09a1 1 0 0 0-.799-.099z" fill="#DA4" stroke="#000" stroke-linejoin="round"/><path d="m49.457 60.77-17.14-10.284c-.618-.37-1.32.332-.95.95a.69.69 0 0 0 .196.21l16.805 11.81a1 1 0 0 0 1.575-.819v-1.009a1 1 0 0 0-.486-.857z" fill="#FE6"/><path d="m82.443 58.562-1-19.5h9v18.5c-.5 2.5-7 3-8 1zm-29 16-1-19.5h9v18.5c-.5 2.5-7 3-8 1z" fill="#A62" stroke="#000"/><path d="M90.443 38.562c0 .584-.397 1.198-1.222 1.693-.815.488-1.972.807-3.278.807s-2.464-.319-3.278-.807c-.825-.495-1.222-1.11-1.222-1.693 0-.584.397-1.198 1.222-1.693.814-.488 1.972-.807 3.278-.807s2.463.319 3.278.807c.825.495 1.222 1.11 1.222 1.693zm-29 16c0 .584-.397 1.198-1.222 1.693-.815.488-1.972.807-3.278.807s-2.464-.319-3.278-.807c-.825-.495-1.222-1.11-1.222-1.693 0-.584.397-1.198 1.222-1.693.814-.488 1.972-.807 3.278-.807s2.463.319 3.278.807c.825.495 1.222 1.11 1.222 1.693z" fill="#FE6" stroke="#000"/></svg>
